MonoIcons/scalable/status/audio-volume-low-symbolic.svg

<?xml version="1.0" encoding="UTF-8"?>
<svg height="16px" viewBox="0 0 16 16" width="16px" xmlns="http://www.w3.org/2000/svg">
    <path d="m 7 1.007812 c -0.296875 -0.003906 -0.578125 0.125 -0.769531 0.351563 l -3.230469 3.640625 h -1 c -1.09375 0 -2 0.84375 -2 2 v 2 c 0 1.089844 0.910156 2 2 2 h 1 l 3.230469 3.640625 c 0.210937 0.253906 0.492187 0.363281 0.769531 0.359375 z m 2.957031 2.980469 c -0.199219 0.011719 -0.394531 0.074219 -0.5625 0.203125 c -0.441406 0.332032 -0.53125 0.960938 -0.195312 1.402344 c 1.074219 1.425781 1.074219 3.386719 0 4.8125 c -0.335938 0.441406 -0.246094 1.070312 0.195312 1.402344 c 0.441407 0.332031 1.066407 0.242187 1.398438 -0.195313 c 0.804687 -1.070312 1.207031 -2.339843 1.207031 -3.613281 s -0.402344 -2.542969 -1.207031 -3.613281 c -0.183594 -0.246094 -0.464844 -0.382813 -0.753907 -0.398438 c -0.027343 0 -0.054687 0 -0.085937 0 z m 0 0" fill="#2e3436"/>
</svg>

<svg width="16" height="16" viewBox="0 0 16 16" fill="none" xmlns="http://www.w3.org/2000/svg">
<path d="M7.00001 1.00765C6.70313 1.00375 6.42188 1.13265 6.23048 1.35922L3 4.99985H2C0.906251 4.99985 0 5.8436 0 6.99985V8.99985C0 10.0897 0.910157 10.9999 2 10.9999H3L6.23048 14.6405C6.44141 14.8944 6.72266 15.0038 7.00001 14.9999V1.00765ZM9.95704 3.98813C9.75782 3.99985 9.56251 4.06235 9.39454 4.19125C8.95313 4.52328 8.86329 5.15219 9.19923 5.5936C10.2734 7.01938 10.2734 8.98032 9.19923 10.4061C8.86329 10.8475 8.95313 11.4764 9.39454 11.8084C9.83595 12.1405 10.4609 12.0506 10.793 11.6131C11.5977 10.5428 12 9.27329 12 7.99985C12 6.72641 11.5977 5.45688 10.793 4.38657C10.6094 4.14047 10.3281 4.00375 10.0391 3.98813C10.0117 3.98813 9.98439 3.98813 9.95314 3.98813H9.95704Z" fill="#2E3436"/>
</svg>
